img/logo-github-20.svg

<svg fill="none" height="32" viewBox="0 0 33 32" width="33" xmlns="http://www.w3.org/2000/svg" xmlns:xlink="http://www.w3.org/1999/xlink"><clipPath id="a"><path d="m.751953 0h32v32h-32z"/></clipPath><g clip-path="url(#a)"><path clip-rule="evenodd" d="m16.703 0c-8.80732 0-15.951047 7.14373-15.951047 15.9511 0 7.0458 4.599387 13.0153 10.862347 15.1682.7829.0978 1.0765-.3915 1.0765-.7829s0-1.37 0-2.7401c-4.40368.9786-5.38227-2.1529-5.38227-2.1529-.68502-1.8593-1.76147-2.3486-1.76147-2.3486-1.46789-.9786.09786-.9786.09786-.9786 1.56575.0979 2.44648 1.6636 2.44648 1.6636 1.46789 2.4465 3.7187 1.7615 4.5994 1.37.0978-1.0764.5871-1.7614.9786-2.1529-3.523-.3914-7.24161-1.7614-7.24161-7.9266 0-1.7614.58716-3.1315 1.66361-4.3058-.09786-.2936-.68501-1.95716.19572-4.11007 0 0 1.37003-.39143 4.40368 1.66361 1.2722-.39143 2.6422-.48929 4.0122-.48929 1.3701 0 2.7401.19571 4.0123.48929 3.0336-2.05504 4.4036-1.66361 4.4036-1.66361.8808 2.15291.2936 3.81647.1957 4.20797.9786 1.0764 1.6637 2.5443 1.6637 4.3058 0 6.1651-3.7187 7.4373-7.2416 7.8287.5871.4893 1.0764 1.4679 1.0764 2.9358v4.4037c0 .3914.2936.8807 1.0765.7829 6.3608-2.1529 10.8624-8.1224 10.8624-15.1682-.0979-8.80737-7.2416-15.9511-16.049-15.9511z" fill="#fff" fill-rule="evenodd"/></g></svg>

<svg width="33" height="32" viewBox="0 0 33 32" fill="none" xmlns="http://www.w3.org/2000/svg">
<g clip-path="url(#clip0_3470_10856)">
<path fill-rule="evenodd" clip-rule="evenodd" d="M16.703 0C7.89568 0 0.751953 7.14373 0.751953 15.9511C0.751953 22.9969 5.35134 28.9664 11.6143 31.1193C12.3972 31.2171 12.6908 30.7278 12.6908 30.3364C12.6908 29.945 12.6908 28.9664 12.6908 27.5963C8.28712 28.5749 7.30853 25.4434 7.30853 25.4434C6.62351 23.5841 5.54706 23.0948 5.54706 23.0948C4.07917 22.1162 5.64492 22.1162 5.64492 22.1162C7.21067 22.2141 8.0914 23.7798 8.0914 23.7798C9.55929 26.2263 11.8101 25.5413 12.6908 25.1498C12.7886 24.0734 13.2779 23.3884 13.6694 22.9969C10.1464 22.6055 6.42779 21.2355 6.42779 15.0703C6.42779 13.3089 7.01495 11.9388 8.0914 10.7645C7.99354 10.4709 7.40639 8.80734 8.28712 6.65443C8.28712 6.65443 9.65715 6.263 12.6908 8.31804C13.963 7.92661 15.333 7.82875 16.703 7.82875C18.0731 7.82875 19.4431 8.02446 20.7153 8.31804C23.7489 6.263 25.1189 6.65443 25.1189 6.65443C25.9997 8.80734 25.4125 10.4709 25.3146 10.8624C26.2932 11.9388 26.9783 13.4067 26.9783 15.1682C26.9783 21.3333 23.2596 22.6055 19.7367 22.9969C20.3238 23.4862 20.8131 24.4648 20.8131 25.9327C20.8131 28.0856 20.8131 29.7492 20.8131 30.3364C20.8131 30.7278 21.1067 31.2171 21.8896 31.1193C28.2504 28.9664 32.752 22.9969 32.752 15.9511C32.6541 7.14373 25.5104 0 16.703 0Z" fill="white"/>
</g>
<defs>
<clipPath id="clip0_3470_10856">
<rect width="32" height="32" fill="white" transform="translate(0.751953)"/>
</clipPath>
</defs>
</svg>
